X: 24252
T: Lord Rossmore's Tally-Ho In The Morning
R: jig
M: 6/8
K: Adorian
AG|:EAA AGA|BcB g2 b/a/|gfe edc|BcA ~G3|
EAA AGA|BcB g3|f/g/ae dcB|1 A3 A2G:|2 A3 z2 a||
aea ac'a|bge e2f|gba gfe|dBA ~G3|
EAA AGA|BcB g3|f/g/ae dcB|1 A3 z2a:|2 A3 z3||

